pix/lsu/examsoft.svg

<?xml version="1.0" encoding="UTF-8" standalone="no"?><!DOCTYPE svg PUBLIC "-//W3C//DTD SVG 1.1//EN" "http://www.w3.org/Graphics/SVG/1.1/DTD/svg11.dtd"><svg width="100%" height="100%" viewBox="0 0 512 512" version="1.1" xmlns="http://www.w3.org/2000/svg" xmlns:xlink="http://www.w3.org/1999/xlink" xml:space="preserve" xmlns:serif="http://www.serif.com/" style="fill-rule:evenodd;clip-rule:evenodd;stroke-linejoin:round;stroke-miterlimit:2;"><g id="Layer-1" serif:id="Layer 1"><path d="M512,52.071c0,-28.739 -23.332,-52.071 -52.071,-52.071l-407.858,0c-28.739,0 -52.071,23.332 -52.071,52.071l0,407.858c0,28.739 23.332,52.071 52.071,52.071l407.858,0c28.739,0 52.071,-23.332 52.071,-52.071l0,-407.858Z" style="fill:#2d3e4f;"/><path d="M211.236,424.787c-1.68,-1.437 -2.598,-2.144 -3.427,-2.943c-32.84,-31.682 -65.671,-63.373 -98.506,-95.061c-13.298,-12.835 -26.549,-25.721 -39.954,-38.444c-2.456,-2.33 -2.704,-3.61 -0.097,-6.134c10.405,-10.076 20.674,-20.304 30.696,-30.761c2.874,-2.999 4.392,-2.479 7.08,0.059c32.698,30.86 65.504,61.605 98.277,92.387c5.174,4.858 5.166,4.876 9.943,-0.003c60.121,-61.403 120.241,-122.807 180.357,-184.214c3.261,-3.33 6.556,-6.632 9.702,-10.067c1.476,-1.611 2.566,-1.577 4.088,-0.091c11.319,11.044 22.64,22.085 34.08,33.002c2.107,2.011 0.854,2.947 -0.498,4.328c-21.321,21.772 -42.61,43.576 -63.923,65.356c-32.956,33.678 -65.929,67.338 -98.884,101.016c-22.36,22.848 -44.706,45.709 -67.027,68.594c-0.791,0.811 -1.256,1.94 -1.907,2.976" style="fill:#fcfcfd;fill-rule:nonzero;"/><path d="M216.417,319.856c-1.415,-2.051 -0.753,-4.277 -0.752,-6.347c0.012,-53.105 0.095,-106.211 0.129,-159.317c0.007,-11.429 -0.058,-11.433 11.494,-11.429c14.317,0.006 28.636,0.112 42.951,-0.04c3.551,-0.037 4.965,0.803 4.951,4.692c-0.133,36.625 -0.083,73.251 -0.072,109.877c0.001,2.038 -0.254,3.804 -1.854,5.424c-18.544,18.778 -37.015,37.628 -55.522,56.443c-0.313,0.318 -0.825,0.441 -1.325,0.697" style="fill:#45a1d9;fill-rule:nonzero;"/><path d="M296.686,237.391c-0.845,-1.658 -0.463,-3.496 -0.464,-5.249c-0.017,-46.48 0.065,-92.96 -0.089,-139.44c-0.014,-4.349 0.984,-5.558 5.444,-5.479c16.487,0.291 32.985,0.233 49.474,-0.009c3.952,-0.057 4.743,1.382 4.732,4.906c-0.087,27.487 -0.042,54.975 0.004,82.463c0.004,2.431 -0.402,4.628 -2.165,6.412c-18.122,18.333 -36.236,36.671 -54.396,54.965c-0.622,0.626 -1.18,1.706 -2.54,1.431" style="fill:#45a1d9;fill-rule:nonzero;"/><path d="M136.814,258.563c-2.628,-2.283 -3.611,-4.796 -3.584,-8.255c0.128,-16.158 0.127,-32.318 -0.058,-48.475c-0.044,-3.821 0.962,-5.263 5.032,-5.211c16.489,0.206 32.983,0.114 49.474,0.061c2.785,-0.009 4.679,0.158 4.667,3.896c-0.12,35.982 -0.079,71.964 -0.096,107.948c-0.001,0.467 -0.173,0.934 -0.484,2.511" style="fill:#45a1d9;fill-rule:nonzero;"/></g></svg>

<?xml version="1.0" encoding="UTF-8" standalone="no"?>
<!DOCTYPE svg PUBLIC "-//W3C//DTD SVG 1.1//EN" "http://www.w3.org/Graphics/SVG/1.1/DTD/svg11.dtd">
<svg width="100%" height="100%" viewBox="0 0 512 512" version="1.1" xmlns="http://www.w3.org/2000/svg" xmlns:xlink="http://www.w3.org/1999/xlink" xml:space="preserve" xmlns:serif="http://www.serif.com/" style="fill-rule:evenodd;clip-rule:evenodd;stroke-linejoin:round;stroke-miterlimit:2;">
    <g id="Layer-1" serif:id="Layer 1">
        <path d="M211.236,424.787C209.556,423.35 208.638,422.643 207.809,421.844C174.969,390.162 142.138,358.471 109.303,326.783C96.005,313.948 82.754,301.062 69.349,288.339C66.893,286.009 66.645,284.729 69.252,282.205C79.657,272.129 89.926,261.901 99.948,251.444C102.822,248.445 104.34,248.965 107.028,251.503C139.726,282.363 172.532,313.108 205.305,343.89C210.479,348.748 210.471,348.766 215.248,343.887C275.369,282.484 335.489,221.08 395.605,159.673C398.866,156.343 402.161,153.041 405.307,149.606C406.783,147.995 407.873,148.029 409.395,149.515C420.714,160.559 432.035,171.6 443.475,182.517C445.582,184.528 444.329,185.464 442.977,186.845C421.656,208.617 400.367,230.421 379.054,252.201C346.098,285.879 313.125,319.539 280.17,353.217C257.81,376.065 235.464,398.926 213.143,421.811C212.352,422.622 211.887,423.751 211.236,424.787" style="fill:rgb(70,29,124);fill-rule:nonzero;"/>
        <path d="M216.417,319.856C215.002,317.805 215.664,315.579 215.665,313.509C215.677,260.404 215.76,207.298 215.794,154.192C215.801,142.763 215.736,142.759 227.288,142.763C241.605,142.769 255.924,142.875 270.239,142.723C273.79,142.686 275.204,143.526 275.19,147.415C275.057,184.04 275.107,220.666 275.118,257.292C275.119,259.33 274.864,261.096 273.264,262.716C254.72,281.494 236.249,300.344 217.742,319.159C217.429,319.477 216.917,319.6 216.417,319.856" style="fill:rgb(253,208,35);fill-rule:nonzero;"/>
        <path d="M296.686,237.391C295.841,235.733 296.223,233.895 296.222,232.142C296.205,185.662 296.287,139.182 296.133,92.702C296.119,88.353 297.117,87.144 301.577,87.223C318.064,87.514 334.562,87.456 351.051,87.214C355.003,87.157 355.794,88.596 355.783,92.12C355.696,119.607 355.741,147.095 355.787,174.583C355.791,177.014 355.385,179.211 353.622,180.995C335.5,199.328 317.386,217.666 299.226,235.96C298.604,236.586 298.046,237.666 296.686,237.391" style="fill:rgb(253,208,35);fill-rule:nonzero;"/>
        <path d="M136.814,258.563C134.186,256.28 133.203,253.767 133.23,250.308C133.358,234.15 133.357,217.99 133.172,201.833C133.128,198.012 134.134,196.57 138.204,196.622C154.693,196.828 171.187,196.736 187.678,196.683C190.463,196.674 192.357,196.841 192.345,200.579C192.225,236.561 192.266,272.543 192.249,308.527C192.248,308.994 192.076,309.461 191.765,311.038" style="fill:rgb(253,208,35);fill-rule:nonzero;"/>
    </g>
</svg>
